X: 2246
T: Gammal polska
T: ur P E Ohlssons notbok
B: P E Ohlssons notbok, nr 56
B: [[http://www.smus.se/earkiv/fmk/browsevol.php?lang=sw&katalogid=M+18&bildnr=00065|SMUS - katalog M18 bild 65]]
R: Polska
O: Närke
Z: Nils L
N: Se även [[Musik/1934|+]] och [[Musik/1946|+]]
M: 3/4
L: 1/16
K: G
G2B2 d2ed (cB)AB | G2g2 (gf)ef a2g2 | (gf)ed (cB)AG (GF)GA |1 (BA)GF G2D2 (CB,)A,B, :|2
(BA)GF (F2G2) G4 |: G2B2 d2ed (cB)AG | A2A2 (dA)(FA) (dA)(FA) | A2B2 c2d2 (fe)dc |
B2B2 (dB)(GB) (dB)(GB) | G2B2 d2ed (cB)AB | G2g2 (gf)ef a2g2 | (gf)ed (cB)AG (GF)GA |
(BA)GF (F2G2) G4 :|
(:musicend:)
(:music:)
